X: 13028
T: Finbarr Dwyer's
R: reel
M: 4/4
K: Amixolydian
EA,CA, EA,CA,|G,3A, B,A, (3B,CD|EA,B,E ABAG|EB,DB, A,2AG|
EAAG EAGE|DB,ED B,A, (3B,CD|EA,B,E ABAG|EB,DB, A,3A:|
|:EA~A2 EAAF|G2DG dGBG|EA~A2 fAeB|AGED B,DA,D|
EA~A2 fAeA|EAec d2ed|~c3A BdcA|^GEDB, A,3A:|

